build/img/svg/iceberg-logo.svg

<svg width="70" height="38" viewBox="0 0 70 38" fill="none" xmlns="http://www.w3.org/2000/svg">
<path fill-rule="evenodd" clip-rule="evenodd" d="M0.903517 31.125L14.6726 12.5429L18.4395 14.556L27.4026 0L32.9879 6.65881L35.0665 4.95532L43.1199 15.1755L48.8355 8.36191L64.8126 31.125L49.42 11.7689L47.0817 19.8984L49.225 26.3249L35.456 7.35558L35.3069 13.8279L43.1199 31.125L28.5064 4.33574L32.7282 18.8145L26.8181 4.72292L23.5706 14.0916L24.2198 7.97472L16.1013 30.0411L17.0753 20.75L13.6981 17.0338L0.903517 31.125Z" fill="#F9FBFD"/>
<path fill-rule="evenodd" clip-rule="evenodd" d="M69.4414 34.0314C47.641 16.428 13.7091 40.6289 0 31.2961C15.0723 44.5215 50.3019 22.1644 69.4414 34.0314Z" fill="#F9FBFD"/>
<path fill-rule="evenodd" clip-rule="evenodd" d="M70 35.4157C52.8956 24.5171 27.4568 39.6838 14.4189 36.1717C28.5467 43.0283 54.8482 27.8361 70 35.4157Z" fill="#F9FBFD"/>
</svg>

<svg width="70" height="38" viewBox="0 0 70 38" fill="none" xmlns="http://www.w3.org/2000/svg"><path fill-rule="evenodd" clip-rule="evenodd" d="m.9 31.13 13.77-18.59 3.77 2.02L27.4 0 33 6.66l2.08-1.7 8.05 10.22 5.72-6.82L64.8 31.13 49.42 11.77l-2.34 8.13 2.15 6.42L35.45 7.36l-.15 6.47 7.81 17.3-14.61-26.8 4.22 14.48-5.91-14.09-3.25 9.37.65-6.12-8.12 22.07.98-9.29-3.38-3.72L.9 31.13Z" fill="#F9FBFD"/><path fill-rule="evenodd" clip-rule="evenodd" d="M69.44 34.03C47.64 16.43 13.71 40.63 0 31.3c15.07 13.22 50.3-9.14 69.44 2.73Z" fill="#F9FBFD"/><path fill-rule="evenodd" clip-rule="evenodd" d="M70 35.42c-17.1-10.9-42.54 4.26-55.58.75 14.13 6.86 40.43-8.33 55.58-.75Z" fill="#F9FBFD"/></svg>
